lib/brands/icons/wordpress.svg

<svg xmlns="http://www.w3.org/2000/svg" fill="none" aria-hidden="true" viewBox="0 0 48 48"><g id="wordpress-Icon"><g id="Group"><circle id="bg" cx="24" cy="24" r="18" fill="#028CB0"/><path id="wordpress" fill="white" d="M11.7281 24C11.7281 28.8629 14.5567 33.0514 18.6473 35.0423L12.7943 19.0065C12.0915 20.5774 11.7282 22.279 11.7281 24ZM23.9998 36.2716C25.425 36.2716 26.7957 36.0214 28.0795 35.5754L27.9924 35.4122L24.2174 25.077L20.5402 35.7712C21.6281 36.0976 22.7922 36.2716 23.9998 36.2716ZM25.6861 18.2449L30.1247 31.4413L31.3541 27.3507C31.8763 25.6536 32.2788 24.4351 32.2788 23.3799C32.2788 21.8568 31.7348 20.8124 31.2779 20.0073C30.6469 18.9847 30.0703 18.1252 30.0703 17.1244C30.0703 15.9929 30.9189 14.9485 32.1374 14.9485H32.2897C30.0285 12.8727 27.0693 11.7232 23.9998 11.7283C21.9674 11.7279 19.9667 12.2328 18.1778 13.1975C16.389 14.1622 14.868 15.5565 13.7517 17.2549L14.535 17.2767C15.8187 17.2767 17.7987 17.1135 17.7987 17.1135C18.4732 17.0809 18.5494 18.0491 17.8857 18.1252C17.8857 18.1252 17.2221 18.2123 16.4714 18.2449L20.9536 31.5392L23.6408 23.4887L21.7261 18.2449C21.2972 18.2213 20.8691 18.185 20.4423 18.1361C19.7787 18.0926 19.8548 17.0809 20.5185 17.1135C20.5185 17.1135 22.542 17.2767 23.7496 17.2767C25.0333 17.2767 27.0133 17.1135 27.0133 17.1135C27.6769 17.0809 27.764 18.0491 27.1003 18.1252C27.1003 18.1252 26.4367 18.2014 25.6861 18.2449ZM30.1683 34.6071C32.0247 33.5277 33.5654 31.98 34.6364 30.1186C35.7074 28.2573 36.2712 26.1474 36.2714 24C36.2714 21.8677 35.7275 19.8659 34.7701 18.1144C34.9645 20.0414 34.6728 21.9864 33.9216 23.7715L30.1683 34.6071ZM23.9998 38.1428C20.2489 38.1428 16.6516 36.6528 13.9993 34.0005C11.347 31.3482 9.85693 27.7509 9.85693 24C9.85693 20.2491 11.347 16.6518 13.9993 13.9995C16.6516 11.3472 20.2489 9.85712 23.9998 9.85712C27.7507 9.85712 31.348 11.3472 34.0003 13.9995C36.6526 16.6518 38.1426 20.2491 38.1426 24C38.1426 27.7509 36.6526 31.3482 34.0003 34.0005C31.348 36.6528 27.7507 38.1428 23.9998 38.1428Z"/></g></g></svg>

<svg xmlns="http://www.w3.org/2000/svg" fill="none" aria-hidden="true" viewBox="0 0 48 48"><circle cx="24" cy="24" r="18" fill="#028CB0"/><path fill="#fff" d="M11.728 24c0 4.863 2.829 9.051 6.92 11.042l-5.854-16.036A12.23 12.23 0 0 0 11.728 24ZM24 36.272c1.425 0 2.796-.25 4.08-.697l-.088-.163-3.775-10.335-3.677 10.694c1.088.327 2.252.5 3.46.5Zm1.686-18.027 4.439 13.196 1.23-4.09c.521-1.697.924-2.916.924-3.971 0-1.523-.544-2.568-1.001-3.373-.631-1.022-1.208-1.882-1.208-2.883 0-1.131.849-2.175 2.067-2.175h.153a12.228 12.228 0 0 0-8.29-3.22 12.26 12.26 0 0 0-10.248 5.526l.783.022c1.284 0 3.264-.164 3.264-.164.674-.032.75.936.087 1.012 0 0-.664.087-1.415.12l4.483 13.294 2.687-8.05-1.915-5.244a21.8 21.8 0 0 1-1.284-.109c-.663-.043-.587-1.055.076-1.023 0 0 2.024.164 3.232.164 1.283 0 3.263-.164 3.263-.164.664-.032.751.936.087 1.012 0 0-.663.076-1.414.12Zm4.482 16.362a12.271 12.271 0 0 0 4.602-16.493 11.587 11.587 0 0 1-.848 5.657l-3.754 10.836ZM24 38.143a14.143 14.143 0 1 1 0-28.286 14.143 14.143 0 0 1 0 28.286Z"/></svg>
